X:1
T: Lt. Col. Baillie of Leys
C:
R:Strathspey
Q: 128
K:C
M:4/4
L:1/16
|:F2|D4 F3A d3A F3D|EB,3 E3D CE3 CA,3|D4 F3A d3A F3D|f3d e3c d2cB AGFE|
D4 F3A d3A F3D|EB,3 E3D CE3 CA,3|D4 F3A d3A F3A|B3g fedc d6 e2|
f2d2 g2e2 f2d2 A2F2|G2e2 F2d2 e2A2 c2A2|f2d2 g2e2 f2d2 e2c2|B2g2 fedc d4 e2e2|
f2d2 g2e2 f2d2 A2F2|G2e2 F2d2 e2A2 c2A2|D4 F3A d3A F3A|B3g fedc d6:|
